X: 1
T: Polska fr\aan \"Alvdalen
O: efter Bengt Jonsson 1993
S: handwritten MS
Z: 2006 John Chambers <jc@trillian.mit.edu>
M: 3/4
L: 1/8
K: D
%%slurgraces 1
(c | A)>(c A2) c>d | (e<f) (g~f) e>c | (A<c) A2 c>d | (e<f) d2 d :: (c | ~d)>e ~f>e {e}f>g |
| {g}a>(b a<^g) {g}a2- | af- ~fd e>(f | (3ge)g (3f(df) e>c | (A<c) [e2c2] c>d | (e<f) [d2-D2] [dD] :|
